X:1
T:KARNAVALSPOTPOURRI 123
T: Laukens Music Productions  
T:KARNAVALSPOTPOURRI 123
T:Mars
T:KARNAVALSPOTPOURRI 123 blad 2 van 
T: Laukens Music Productions  
T:KARNAVALSPOTPOURRI 123 blad 3 van 
T: Laukens Music Productions  
C:Unknown
Z:All Rights Reserved
L:1/8
Q:1/4=120
M:4/4
K:G
V:1 treble nm="MusicXML Part"
%%MIDI program 0
%%MIDI control 7 102
%%MIDI control 10 64
V:1
"G" g>f e^d ec BA |"D7" d z f2 g z z2 ||"G""^Rosamunde" d4 d4 | de- e6 | d e2 d e d2 ^c |"D7" c8 | %6
"Am" e4 e4 | ef- f6 |"D7" e f2 e f e2 ^d |"G" d2 d>e"D7" dcBA |"G" d4 d4 | de- e6 | %12
 d e2 d"G7" e d2 B |"C" e8 |"D7" ABcd f3 e |"G" ed- d4 GA | B4"D7" c A2 B |"G" G6- Gd || %18
"G" d B2 d d B2 d | dgag"D7" g f2 f | fgag g f2 f | f e2 e"G" e d2 d | d B2 d d B2 d | %23
 dgag"D7" g f2 f | fgag g f2 e | ddef"G" g2 d^d |"C" e2 ^de- ecBA | e6 c^c |"G" d2 ^cd- dBAG | %29
 d4- dgag |"D7" f3 a e3 d | f4- fgag | f3 a e2 f2 |"G" g6 d/^d/e/f/ |"G" g2 e2 d2 B2 ||"G" d4 d4 | %36
 de- e6 | d e2 d e d2 ^c |"D7" =c8 |"Am" e4 e4 | ef- f6 |"D7" e f2 e f e2 _e |"G" d2 d>e"D7" dcBA | %43
"G" d4 d4 | de- e6 | d e2 d"G7" e d2 B |"C" e8 | ABcd f3 e |"G" ed- d4 GA | B4"D7" c A2 B | %50
"G" G2"A7" ^c2"D7" ddef ||"G""^Das Wurstenlied" g2 g2 g2 g2 |"D7" f f2 e c4 | f f2 e c4 | %54
"G" e e2 d Bdef | g2 g2 g2 g2 |"D7" f f2 e c4 | f f2 e ddef |"G" g6 dc ||"G" BBBc"G7" ddcB | %60
"C" cccd eeeg |"D7" ffff ffe^d |"G" d6 dc | BBBc"G7" ddcB |"C" cccd eeeg |"D7" ffff fdef | %66
"G" g6 g2 |"C" eeef g g2 e |"G" dedc B3 B |"A7" AAA^c e e2 f | ggfe"D7" ddef |"G" g2 g2 g2 g2 | %72
"D7" f f2 e c4 | f f2 e c4 |"G" e e2 d Bdef | g2 g2 g2 g2 |"D7" f f2 e c4 | f f2 e ddef | %78
"G" g4- g"G7"gag |:[K:C]"C""^Alie van de Wegenwacht" e2 c4 ga |"G7" g2 f2 d3 a | g2 f2 d3 b | %82
"C" a2 g2 egag | e2 c4 ga |"G7" g2 f2 d3 g | gg g2 gg g2 |1 gfed"C" cgag :|2 %87
"C" c2"A7" ^c2"D7" d4 ||[K:G]"G""^Happy Holiday" d>BGE D4 | D/D/D/D/EG"D7" FF F2 | d>cAF D4 | %91
 D/D/D/D/EF"G" GG G2 |"G" d>BGE D4 | D/D/D/D/EG"D7" FF F2 | d>cAF D4 | D/D/D/D/EF"G" GG G2 |: %96
"G" DD/D/EE DD/D/ E2 | D/D/D/D/EG"D7" FF F2 | DD/D/EE DD/D/ E2 | D/D/D/D/EF"G" GG G2 :| %100
"G" D3 C B,3 D | DDE>D"D7" DC C2 |"Am" E3 D C3 E |"D7" EEF>E"G" ED D2 | D3 C B,3 B, | %105
"G7" B,B,CD"C" E4 | E/E/E/E/FE"G" D/D/D/D/ED |"D7" C/C/C/C/DC"G" B,C"G7" D2 | %108
"C" E/E/E/E/FE"G" D/D/D/D/ED |"D7" C/C/C/C/B,A,"G" G,zc_B |: %110
[K:F]"F""^Onze ouwe Sint Jan" A4 c2 f2 | a6 aa |"F7" a4 b2 a2 |"Bb" d6 gf |"C7" eeed c2 gf | %115
 eeed c2 cB |"F" A2 c2 f2 a2 | a2 _a2"C7" g2 cB |"F" A4 c2 f2 | a6 aa |"F7" a4 b2 a2 |"Bb" d6 gf | %122
"C7" eeed c2 gf | eeed c2 cc | b2 b2 a2 g2 |"F" f4 z4 :|[K:G]"D7" F F2 G F3 E | DDEF"G" G4 || %128
S"G""^Radi, radi, radi" B B2 c B2 G2 |"C" cc"G"BB"D7" A2 F2 | d d2 e d3 d | ddcc"G" B2 G2 | %132
 B B2 c B2 G2 |"C" cc"G"BB"D7" A2 F2 | d d2 eO d3 e || dcBA"G" G4 |:[K:C]"C" e3 G A3 G | %137
 cBAc"G7" B2 G2 | f3 G A3 G |1 BAGB"C" e4 :|2"G7" GGAB"C" c4S ||[K:G]O dcBA"G7" GGAG |: %142
[K:C]S"C" c4-"^Anton aus Tirol" cGAG | c4- cGAB | c2 e2 a2 a2 |"G7" g6 gg |"C" gddd d2 de | %147
"F" fcccO c2 cd ||1"C" e3 c"G7" ddd^d |"C" e4-"G7" eGAG :|2"C" e2 c2"G7" d2 B2 || %151
"C" c2"A7" ^c2"D7" d4 |:[K:G]"G" d3 e d4- | d2 B2 c2 ^c2 |"D7" d3 e d4- | d2 d2 e2 f2 | %156
"C" g3 e c2 f2 |1"D7" f f2 e c2 c2 :|2"D7" f f2 f g2 a2 ||"G" g4- gdef |"G7" g2 =f2 d2 B2 | %161
 G4- GGSAG ||O"C" e2 c2"G" d2 B2 |"C" c4- cG"G7"AG |"C" czc z z4 |] %165

